X:1
T:Standing on the Rock
T:Standing on the Rock
T:Stephen Jesse Oslin
T:John Felton Legg, 1908
T:Public Domain Courtesy of the Cyber Hymnal™
T:Public Domain Courtesy of the Cyber Hymnal™
C:Stephen Jesse Oslin
Z:Public Domain
Z:Courtesy of the Cyber Hymnal™
%%score ( 1 2 ) ( 3 4 )
L:1/8
Q:1/4=108
M:4/4
K:Ab
V:1 treble 
V:2 treble 
V:3 bass 
V:4 bass 
V:1
 [CE]2 | [EA]2 [EG]2 [EA]2 [EB]2 | [Ec]2 [Fd]2 [Ec]2 [EA]2 | [FA][FA][DF][DF] [FA]2 [Ad]2 | %4
w: 1.~Re-|demp- tion to my|soul has come— I’m|stand- ing on the Rock at|
w: 2.~The|Sav- ior comes and|speaks to me— I’m|stand- ing on the Rock at|
w: 3.~There|is a home for|you and me— I’m|stand- ing on the Rock at|
w: 4.~Now|I am hap- py|in His love— I’m|stand- ing on the Rock at|
 [Ac]6 [Ac]2 | [Ae]2 [Ae]2 [Ac]2 _G2 | [FA]2 [DF]2 [FA]2 [Ad]2 | [Ac][Ac][GB]A [Ac]2 [GB]2 | A6 || %9
w: last! In|Je- sus I am|shout- ing on— I’m|stand- ing on the Rock at|last!|
w: last! And|whis- pers, “Grace hath|made thee free”— I’m|stand- ing on the Rock at|last!|
w: last! Just|o- ver Jor- dan’s|roil- ing sea— I’m|stand- ing on the Rock at|last!|
w: last! And|on my way to|Heav’n I move— I’m|stand- ing on the Rock at|last!|
"^Refrain" !fermata![Ae]>[Ae] | [Ac][Ac][Ac][Ac] [Ac]2 _G2 | [FA][FA][DF][DF] [FA]2 [EA]2 | %12
w: |||
w: Oh, I’m|stand- ing on the Rock, I’m|stand- ing on the Rock, I’m|
w: |||
w: |||
 [Ac][Ac][Ac][Ac] [Ae]2 [Ac]2 | !fermata!B4 !fermata!G2 [Ac]2 | [Ae]2 [Ae]2 [Ac]2 _G2 | %15
w: |||
w: stand- ing on the Rock at|last! My soul|* has found a|
w: |||
w: |||
 [FA]2 [DF]2 [FA]2 [Ad]2 | [Ac][Ac][GB]A [GB]2 [GB]2 | !fermata!A6 !fermata!E2 |] %18
w: |||
w: rest- ing place— I’m|stand- ing on the Rock at|last! *|
w: |||
w: |||
V:2
 x2 | x8 | x8 | x8 | x8 | x6 _G2 | x8 | x3 A x4 | A6 || x2 | x6 _G2 | x8 | x8 | BBAA x4 | x6 _G2 | %15
 x8 | x3 A x4 | AEFF x4 |] %18
V:3
 [A,,A,]2 | [A,,C]2 [B,,B,]2 [D,A,]2 [E,G,]2 | A,2 A,2 A,2 [A,C]2 | %3
w: ||yes, stand- ing *|
 [D,D][D,D][D,A,][D,A,] [D,D]2 [D,F]2 | [A,E]6 [A,E]2 | [A,C]2 [A,C]2 [A,E]2 [A,C]2 | %6
w: |||
 [D,D]2 [D,A,]2 [D,D]2 [D,F]2 | [E,E][E,E][E,D][E,C] [E,E]2 [E,B,]2 | [A,,C]6 || %9
w: |||
 !fermata![A,C]>[A,C] | [A,E][A,E][A,E][A,E] [A,E]2 [A,C]2 | [D,D][D,D][D,A,][D,A,] [D,D]2 [A,C]2 | %12
w: |||
 [A,E][A,E][A,E][A,E] [A,C]2 [A,E]2 | [A,E][G,E][F,=D][F,D] !fermata![E,E]2 [A,E]2 | %14
w: * * * * * on|the Rock! yes, stand- ing *|
 [A,C]2 [A,C]2 [A,E]2 [A,C]2 | [D,D]2 [D,A,]2 [D,D]2 [D,F]2 | [E,E][E,E][E,D][E,C] [E,E]2 [E,D]2 | %17
w: ||* * * * * on|
 !fermata!CCDD !fermata!C2 x2 |] %18
w: the Rock! * * *|
V:4
 x2 | x8 | A,2 A,2 A,2 x2 | x8 | x8 | x8 | x8 | x8 | x6 || x2 | x8 | x8 | x8 | x8 | x8 | x8 | x8 | %17
 A,,6 x2 |] %18

